X: 89
M: 9/8
L: 1/8
K: G
d |\
g2g gag fed | e2e efg a2b |\
g2g bag fed | e/f/ge dBG A2d |
g2g gag fed | e2e egb a2g |\
gab abg fed | gfe dBG A2"_D.C."B!segno!|]

